Origami/48x48/apps/milkytracker.svg

<svg width="48" height="48" version="1" xmlns="http://www.w3.org/2000/svg">
 <path d="m40 43v-28h-32v28c0 1.108 0.892 2 2 2h28c1.108 0 2-0.892 2-2z" style="opacity:.2"/>
 <path d="m40 42v-28h-32v28c0 1.108 0.892 2 2 2h28c1.108 0 2-0.892 2-2z" style="fill:#cccccc"/>
 <path d="m15 8h18l7 6h-32z" style="fill:#b8b8b8"/>
 <rect x="15" y="4" width="18" height="4" style="fill:#a3a3a3"/>
 <path d="m33 8l7 6h-14z" style="fill:#a3a3a3"/>
 <path d="m26 14v30h12c1.108 0 2-0.892 2-2v-28h-14z" style="fill:#b8b8b8"/>
 <path d="m21.512216 35.478732v-11.99949m-8.999433 0 4.499717 5.999622 4.499716-5.999622m-8.999433 11.99949v-11.99949" style="fill:none;opacity:.2;stroke-linecap:round;stroke-linejoin:round;stroke-width:2.9998109;stroke:#000000"/>
 <path d="m21.512216 34.478732v-11.99949m-8.999433 0 4.499717 5.999622 4.499716-5.999622m-8.999433 11.99949v-11.99949" style="fill:none;stroke-linecap:round;stroke-linejoin:round;stroke-width:2.9998109;stroke:#3a86c5"/>
 <path d="m30.521268 23.479242h5.999622m-2.999811 11.99949v-11.99949" style="fill:none;opacity:.2;stroke-linecap:round;stroke-width:2.9998109;stroke:#000000"/>
 <path d="m30.521268 22.479242h5.999622m-2.999811 11.99949v-11.99949" style="fill:none;stroke-linecap:round;stroke-width:2.9998109;stroke:#3a86c5"/>
 <path d="m15 4v1h18v-1h-18z" style="fill:#ffffff;opacity:.1"/>
</svg>

<svg xmlns="http://www.w3.org/2000/svg" width="48" height="48" version="1">
 <path style="opacity:0.2" d="M 40,43 V 15 H 8 v 28 c 0,1.108 0.892,2 2,2 h 28 c 1.108,0 2,-0.892 2,-2 z"/>
 <path style="fill:#cccccc" d="M 40,42 V 14 H 8 v 28 c 0,1.108 0.892,2 2,2 h 28 c 1.108,0 2,-0.892 2,-2 z"/>
 <path style="fill:#b8b8b8" d="m 15,8 h 18 l 7,6 H 8 Z"/>
 <rect style="fill:#a3a3a3" width="18" height="4" x="15" y="4"/>
 <path style="fill:#a3a3a3" d="m 33,8 v 0 l 7,6 H 26 Z"/>
 <path style="fill:#b8b8b8" d="M 26 14 L 26 44 L 38 44 C 39.108 44 40 43.108 40 42 L 40 14 L 26 14 z"/>
 <path style="opacity:0.2;fill:none;stroke:#000000;stroke-width:2.99981093;stroke-linecap:round;stroke-linejoin:round" d="m 21.512216,35.478732 v -11.99949 m -8.999433,0 4.499717,5.999622 4.499716,-5.999622 m -8.999433,11.99949 v -11.99949"/>
 <path style="fill:none;stroke:#3a86c5;stroke-width:2.99981093;stroke-linecap:round;stroke-linejoin:round" d="m 21.512216,34.478732 v -11.99949 m -8.999433,0 4.499717,5.999622 4.499716,-5.999622 m -8.999433,11.99949 v -11.99949"/>
 <path style="opacity:0.2;fill:none;stroke:#000000;stroke-width:2.99981093;stroke-linecap:round" d="m 30.521268,23.479242 h 5.999622 m -2.999811,11.99949 v -11.99949"/>
 <path style="fill:none;stroke:#3a86c5;stroke-width:2.99981093;stroke-linecap:round" d="m 30.521268,22.479242 h 5.999622 m -2.999811,11.99949 v -11.99949"/>
 <path style="opacity:0.1;fill:#ffffff" d="M 15 4 L 15 5 L 33 5 L 33 4 L 15 4 z"/>
</svg>
